
:script "_functions.hs"

:t lp

:t ifp

:t dv

let dv a b p1 p2 = ifp ((>= a).(`mod` b)) (const p2) (id) p1
in
d1 $ note (
  	fingerpick ( dv 24 32 (dv 12 16 "{e'maj9@4 cs'min11'i@4}%1" "{ds'min7}%1") "fs'min11")
		$ dv 6 8 "{0 1 2. 0 1. 0 2 3 . 0 3}%<1 2 3 4 2 3 4 5>" "{5 4 3 2 1}%4"
		) 
		#s "midi" #midichan 4 #octave 5

hush
